packages/dnb-ui-lib/assets/icons/products_account_percent_medium.svg

<svg width="24" height="24" viewBox="0 0 24 24" fill="none" xmlns="http://www.w3.org/2000/svg">
<path d="M9.75 19.495H9.10766L7.779 17.8939V19.495H6.5V13.2H7.779V16.6246L9.03028 15.12H9.84467V16.0295L8.77829 17.2204L9.75 18.3231V19.495Z" fill="black"/>
<path d="M6.5 7.5H13.25M14.8611 11.5C14.2273 10.8441 13.5443 10.2516 12.8722 9.75H6.87781C4.50702 11.5195 2 14.4191 2 17.25C2 20.9083 3.69647 22.9665 8.75 23.2227M13.1875 23.0625L21.3125 14.9375M14.75 0.75L5.75 2.25C5.75 2.25 7.25 3.06818 7.25 5.25H12.125C12.125 3.06818 14.75 0.75 14.75 0.75ZM21.3125 21.8125C21.3125 22.5029 20.7529 23.0625 20.0625 23.0625C19.3721 23.0625 18.8125 22.5029 18.8125 21.8125C18.8125 21.1221 19.3721 20.5625 20.0625 20.5625C20.7529 20.5625 21.3125 21.1221 21.3125 21.8125ZM15.6875 16.1875C15.6875 16.8779 15.1279 17.4375 14.4375 17.4375C13.7471 17.4375 13.1875 16.8779 13.1875 16.1875C13.1875 15.4971 13.7471 14.9375 14.4375 14.9375C15.1279 14.9375 15.6875 15.4971 15.6875 16.1875Z" stroke="black" stroke-width="1.5" stroke-linecap="round" stroke-linejoin="round"/>
</svg>

<svg width="24" height="24" viewBox="0 0 24 24" fill="none" xmlns="http://www.w3.org/2000/svg"><path d="M9.75 19.495h-.642l-1.329-1.601v1.601H6.5V13.2h1.279v3.425L9.03 15.12h.815v.91l-1.067 1.19.972 1.103v1.172z" fill="#000"/><path d="M6.5 7.5h6.75m1.611 4a16.594 16.594 0 00-1.989-1.75H6.878C4.507 11.52 2 14.42 2 17.25c0 3.658 1.696 5.716 6.75 5.973m4.438-.16l8.124-8.125M14.75.75l-9 1.5s1.5.818 1.5 3h4.875c0-2.182 2.625-4.5 2.625-4.5zm6.563 21.063a1.25 1.25 0 11-2.5 0 1.25 1.25 0 012.5 0zm-5.625-5.625a1.25 1.25 0 11-2.5 0 1.25 1.25 0 012.5 0z" stroke="#000" stroke-width="1.5" stroke-linecap="round" stroke-linejoin="round"/></svg>
